build/img/icon-calendar.svg

<svg width="19" height="19" viewBox="0 0 19 19" fill="none" xmlns="http://www.w3.org/2000/svg">
<path d="M2.37499 2.96881V0.593754C2.37499 0.265531 2.64052 0 2.96882 0C3.29697 0 3.5625 0.265531 3.5625 0.593754V2.96881C3.5625 3.29695 3.29697 3.56248 2.96882 3.56248C2.64052 3.56252 2.37499 3.29695 2.37499 2.96881ZM12.4689 3.56252C12.7969 3.56252 13.0626 3.29699 13.0626 2.96885V0.593754C13.0626 0.265531 12.7969 0 12.4689 0C12.1407 0 11.8749 0.265531 11.8749 0.593754V2.96881C11.8749 3.29695 12.1407 3.56252 12.4689 3.56252ZM19 14.2499C19 16.8733 16.8732 19 14.25 19C11.6269 19 9.50002 16.8733 9.50002 14.2499C9.50002 11.6268 11.6269 9.49998 14.25 9.49998C16.8732 9.49998 19 11.6268 19 14.2499ZM17.8126 14.2499C17.8126 12.2856 16.2146 10.6874 14.25 10.6874C12.2856 10.6874 10.6876 12.2856 10.6876 14.2499C10.6876 16.2145 12.2856 17.8125 14.25 17.8125C16.2146 17.8125 17.8126 16.2145 17.8126 14.2499ZM4.75005 7.12501H2.37499V9.49998H4.75005V7.12501ZM2.37499 13.0625H4.75005V10.6874H2.37499V13.0625ZM5.93748 9.49998H8.31259V7.12501H5.93748V9.49998ZM5.93748 13.0625H8.31259V10.6874H5.93748V13.0625ZM1.18755 14.1318V5.93746H14.25V8.31251H15.4376V3.68086C15.4376 2.95953 14.8623 2.37498 14.1515 2.37498H13.6563V2.96885C13.6563 3.62283 13.1239 4.15631 12.4689 4.15631C11.8138 4.15631 11.2814 3.62283 11.2814 2.96885V2.37498H4.15621V2.96885C4.15621 3.62283 3.62394 4.15631 2.96886 4.15631C2.31362 4.15631 1.78131 3.62283 1.78131 2.96885V2.37498H1.28666C0.575861 2.37498 0 2.95953 0 3.68086V14.1318C0 14.8508 0.575861 15.4376 1.28666 15.4376H8.31259V14.2499H1.28666C1.23286 14.2499 1.18755 14.1943 1.18755 14.1318ZM11.8749 9.49998V7.12501H9.50006V9.49998H11.8749ZM16.0313 14.2499H14.25V12.4686C14.25 12.1405 13.9845 11.875 13.6562 11.875C13.328 11.875 13.0626 12.1405 13.0626 12.4686V14.8438C13.0626 15.1719 13.328 15.4376 13.6562 15.4376H16.0313C16.3595 15.4376 16.6251 15.1719 16.6251 14.8438C16.6251 14.5156 16.3595 14.2499 16.0313 14.2499Z" fill="#00B200"/>
</svg>

<svg width="19" height="19" fill="none" xmlns="http://www.w3.org/2000/svg"><path d="M2.375 2.969V.594a.593.593 0 111.188 0v2.375a.593.593 0 11-1.188 0zm10.094.594a.593.593 0 00.594-.594V.594a.593.593 0 10-1.188 0v2.375c0 .328.266.594.594.594zM19 14.25a4.75 4.75 0 11-9.5 0 4.75 4.75 0 019.5 0zm-1.187 0a3.567 3.567 0 00-3.563-3.563 3.566 3.566 0 00-3.562 3.563 3.566 3.566 0 003.562 3.563 3.566 3.566 0 003.563-3.563zM4.75 7.125H2.375V9.5H4.75V7.125zm-2.375 5.938H4.75v-2.376H2.375v2.376zM5.937 9.5h2.376V7.125H5.937V9.5zm0 3.563h2.376v-2.376H5.937v2.376zm-4.75 1.069V5.937H14.25v2.376h1.188V3.68c0-.721-.576-1.306-1.287-1.306h-.495v.594a1.19 1.19 0 01-1.187 1.187A1.19 1.19 0 0111.28 2.97v-.594H4.156v.594c0 .654-.532 1.187-1.187 1.187A1.19 1.19 0 011.78 2.97v-.594h-.494A1.295 1.295 0 000 3.681v10.45c0 .72.576 1.307 1.287 1.307h7.026V14.25H1.287c-.054 0-.1-.056-.1-.118zM11.876 9.5V7.125H9.5V9.5h2.375zm4.156 4.75H14.25v-1.781a.593.593 0 10-1.187 0v2.375c0 .328.265.594.593.594h2.375a.594.594 0 100-1.188z" fill="#00B200"/></svg>
